X: 36643
T: Shannandoah Falls
R: hornpipe
M: 4/4
K: Amajor
e2 ef edcB|ABcA d3 d|cBAc BAGB|ABAF E2 cd|
e2 ef edcB|AB (3cBA d3 d|cBAc BA G2|1 A6:|
|:F4 B4|F2 A(B B)A F2|A2 cA BcAB|cAB(c c)B A2|
F4 B4|F2 A(B B)fed|cBAc BA G2|1 (A4 A)cBA:|

